X: 1224
T: Antonio the Ice Cream Man
C:C W Murphy (1875 - 1913) & Dan Lipton (1873 - 1935)
B: australian traditional tunes wiki
M:3/4
L:1/8
R: Waltz
Q: 1/4=100
K:C
V:1 
GA|"C"e6|e4"G7"d2|d3Bc2|"C"E3GAB|c6|c2"G7"B2_B2|"F"A6-|A2G2F2|
"F"f6|f4e2|"C"e4d2|"G7"A4-AB|"G7"BAB2c2|d4B2|A2"C"E4|GA Bc d^d|
"C"ee ee ee|ee de ce|"G7"de de c2| "C"E4AB |c2E2GG |c2B2_B2|"F"A6|A2c2e2|
"F"f4A2|f4e2|"C"e4d2|"G7"A2B2c2|"C"e6|"G7"d2A2B2|"C"c6-|c6||
% abcbook-tune_id 6342d53a6307a2b53ffb2113


% abcbook-boost 0
% abcbook-tablature 
% abcbook-transpose 
% abcbook-lastupdated 1665324354873
% abcbook-soundfonts 
% abcbook-repeats 1
% NFF Book 2020

